src/assets/filled/Nem.svg

<svg width="24" height="24" viewBox="0 0 24 24"  xmlns="http://www.w3.org/2000/svg">
<path d="M15.07 17.8793L14.0599 20.0993C13.7999 20.6593 13.4199 21.1493 12.9099 21.4893C12.3899 21.8393 11.7099 21.8693 11.1699 21.5293C9.52993 20.4893 5.94998 17.8193 3.77998 13.1893C3.69998 13.0293 3.91995 12.8693 4.05995 12.9693C4.62995 13.3693 5.23992 13.6493 5.90992 13.8093C6.31992 13.8993 6.73997 13.9393 7.13997 13.9393C8.99997 13.9393 10.6799 12.9893 11.7999 12.1693C12.1299 11.9293 12.5699 11.8793 12.9099 12.0893C14.0299 12.7893 14.78 13.6293 15.15 14.5793C15.79 16.2593 15.09 17.8093 15.07 17.8793Z" />
<path d="M16.8499 18.0497C16.7699 18.1397 16.61 18.0397 16.65 17.9297C17.09 16.4697 17.66 12.6197 12.56 10.1797C12.25 10.0297 12.0199 9.74967 11.9799 9.40967C11.3599 3.84967 16.15 2.84967 16.15 2.84967C16.54 2.76967 16.95 2.76966 17.33 2.87966C18.41 3.16966 19.51 3.56967 20.62 4.10967C21.57 4.56967 22.1199 5.56967 21.9799 6.61967C21.6499 9.09967 20.5499 13.8797 16.8499 18.0497Z" />
<path d="M10.56 10.2105L10.5901 10.4105C10.6601 10.7905 10.5 11.1805 10.18 11.3805C8.03003 12.7305 4.51002 13.7505 2.36002 7.84047C2.16002 7.30047 2.04003 6.90048 2.00003 6.32048C1.95003 5.56048 2.38003 4.69048 3.06003 4.37048C4.82003 3.55048 8.54006 2.12048 13.0301 2.25048C13.2301 2.26048 13.3 2.52047 13.14 2.63047C11.41 3.95047 9.92003 6.33048 10.56 10.2105Z" />
</svg>

<?xml version="1.0" encoding="UTF-8"?>
<svg width="24" height="24" viewBox="0 0 24 24" xmlns="http://www.w3.org/2000/svg">
 <path d="m15.07 17.879-1.0101 2.22c-0.26 0.56-0.64 1.05-1.15 1.39-0.52 0.35-1.2 0.38-1.74 0.04-1.64-1.04-5.2199-3.71-7.3899-8.34-0.08-0.16 0.13997-0.32 0.27997-0.22 0.57 0.4 1.18 0.68 1.85 0.84 0.41 0.09 0.83005 0.13 1.23 0.13 1.86 0 3.5399-0.95 4.6599-1.77 0.33-0.24 0.77-0.29 1.11-0.08 1.12 0.7 1.8701 1.54 2.2401 2.49 0.64 1.68-0.06 3.23-0.08 3.3z"/>
 <path d="m16.85 18.05c-0.08 0.09-0.2399-0.01-0.1999-0.12 0.44-1.46 1.01-5.31-4.09-7.75-0.31-0.15-0.5401-0.43003-0.5801-0.77003-0.62-5.56 4.1701-6.56 4.1701-6.56 0.39-0.08 0.8-0.08001 1.18 0.02999 1.08 0.29 2.18 0.69001 3.29 1.23 0.95 0.46 1.4999 1.46 1.3599 2.51-0.33 2.48-1.43 7.26-5.13 11.43z"/>
 <path d="m10.56 10.21 0.0301 0.2c0.07 0.38-0.0901 0.77-0.4101 0.97-2.15 1.35-5.67 2.37-7.82-3.54-0.2-0.54-0.31999-0.93999-0.35999-1.52-0.05-0.76 0.38-1.63 1.06-1.95 1.76-0.82 5.48-2.25 9.9701-2.12 0.2 0.01 0.2699 0.26999 0.1099 0.37999-1.73 1.32-3.22 3.7-2.58 7.58z"/>
</svg>
